X:2108
T:Slängpolska från England - stämma
R:Slängpolska
M:3/4
L:1/8
Z: Anton Teljebäck
K:Am
|:AAAAAA|GGGGGG|CCCCCC|DDDDDD|AADDDD|EEEEAA:|
|:CCCCCC|G,G,G,G,G,G,|A,A,A,A,A,A,|EEEEEE|FFFFFF|D2>(E2 E2)|FFFFFF|GGGGAA:|

(:musicend:)
(:music:)
